X:21
T:Garryowen
C:Traditional
R:Jig
M:6/8
L:1/8
K:G
gf|:"G"edc BAG|BcB Bgf|edc BAG|"D"ABA Agf|
"G"edc BAG| BcB B2d|def gdB|1"D"ABA Age:|2"D"ABA ABc||
|:"G"d2B d2B|d2B dgf|"C"e2c e2c|e2ce2f|
"G"g2ab2a|gfe d2B|def gdB|1"D"ABA ABc:|2"D"ABA G3|]
